libs/islamic-website/markets-page/src/assets/images/coin-logos/dai.svg

<svg fill="none" height="40" viewBox="0 0 40 40" width="40" xmlns="http://www.w3.org/2000/svg"><rect fill="#f5ac37" height="38" rx="19" width="38" x="1" y="1"/><rect height="38" rx="19" stroke="#181e25" stroke-width="2" width="38" x="1" y="1"/><path clip-rule="evenodd" d="m11.761 29.2175v.0625l-.003.0022v.0106h7.2531c.8209.0112 1.6389-.0542 2.4455-.1987.8495-.1663 1.6773-.4282 2.4666-.7833.3423-.1585.6706-.3501 1.0019-.5434.0839-.0489.1679-.098.2525-.1466.3898-.2777.763-.5787 1.1181-.8985.9722-.8789 1.7247-1.9752 2.195-3.198.0316-.1369.1655-.225.3032-.1986h1.9753c.1572 0 .2092-.0527.2092-.2303v-1.2649c.0105-.1211.0105-.2438 0-.3649 0-.0317.0081-.0633.0162-.0948.0162-.0629.0324-.1255-.0162-.1882h-1.6502c-.1994 0-.1994-.021-.1994-.1986.0572-.6366.0572-1.2755 0-1.9121-.0105-.1881.0316-.1881.1776-.1881h1.4425c.1678 0 .2302-.0421.2302-.2092v-1.7141c-.0052-.1135-.0078-.1711-.0379-.2003-.031-.0299-.091-.0299-.2127-.0299h-1.8706c-.146.0248-.2859-.0738-.3123-.2198-.2144-.5606-.4876-1.0971-.8164-1.599-.3311-.4951-.7043-.9601-1.1182-1.3898-.55-.5493-1.1678-1.0264-1.839-1.4214-1.0121-.5877-2.119-.9993-3.271-1.2122-.5591-.1031-1.1242-.1656-1.6931-.1881h-7.8377c-.2092 0-.2092.0421-.2092.2091v5.633c0 .1987-.0421.1987-.1986.1987h-2.24691c-.16705 0-.16705.0308-.16705.146v1.839c0 .1671.05192.1671.17758.1671h2.26798c.167 0 .167.0308.167.1565v1.9647c0 .1776-.0527.1776-.1881.1776h-2.42446v1.9857c0 .1671.05192.1671.17758.1671h2.26798c.167 0 .167.0203.167.1565v2.4561.8254zm14.4332-12.6558c.018.0467.018.0986 0 .146h.0504c-.0211.0624-.1257.0835-.1257.0835h-12.0598c-.1987 0-.1987-.0421-.1987-.1986v-3.7097c0-.1362.0211-.1987.1776-.1987h5.6119c.5975-.0053 1.1935.0572 1.7766.1881 1.1558.2739 2.2311.8187 3.1356 1.5885.1806.1347.3416.2935.4808.4703.295.2927.5538.6185.7735.9722.146.2069.2717.4274.3778.6584zm.5004 4.6187h-6.3539-6.229c-.127 0-.1897 0-.2205-.0313-.03-.0305-.03-.0905-.03-.2088v-1.8601c0-.1467.0421-.1986.1986-.1986h12.6453c.1362 0 .1987.0519.1987.1775.0519.6472.0519 1.2973 0 1.9437-.0098.1776-.0738.1776-.2092.1776zm-.5004 2.1739c-.1776-.0196-.3567-.0196-.5343 0h-11.5895c-.1566 0-.2092 0-.2092.2091v3.6269c0 .1671 0 .2092.2092.2092h5.3508c.2558.0196.5117.0015.7622-.0519.7766-.0557 1.5403-.2242 2.2687-.5019.2649-.0918.5207-.2114.7623-.3551h.073c1.2543-.6524 2.2732-1.6773 2.9158-2.9354 0 0 .073-.1581-.009-.1994z" fill="#fefefd" fill-rule="evenodd"/></svg>

<svg width="40" height="40" viewBox="0 0 40 40" fill="none" xmlns="http://www.w3.org/2000/svg">
<rect x="1" y="1" width="38" height="38" rx="19" fill="#F5AC37"/>
<rect x="1" y="1" width="38" height="38" rx="19" stroke="#181E25" stroke-width="2"/>
<path fill-rule="evenodd" clip-rule="evenodd" d="M11.761 29.2175V29.28L11.758 29.2822V29.2928H19.0111C19.832 29.304 20.65 29.2386 21.4566 29.0941C22.3061 28.9278 23.1339 28.6659 23.9232 28.3108C24.2655 28.1523 24.5938 27.9607 24.9251 27.7674C25.009 27.7185 25.093 27.6694 25.1776 27.6208C25.5674 27.3431 25.9406 27.0421 26.2957 26.7223C27.2679 25.8434 28.0204 24.7471 28.4907 23.5243C28.5223 23.3874 28.6562 23.2993 28.7939 23.3257H30.7692C30.9264 23.3257 30.9784 23.273 30.9784 23.0954V21.8305C30.9889 21.7094 30.9889 21.5867 30.9784 21.4656C30.9784 21.4339 30.9865 21.4023 30.9946 21.3708C31.0108 21.3079 31.027 21.2453 30.9784 21.1826H29.3282C29.1288 21.1826 29.1288 21.1616 29.1288 20.984C29.186 20.3474 29.186 19.7085 29.1288 19.0719C29.1183 18.8838 29.1604 18.8838 29.3064 18.8838H30.7489C30.9167 18.8838 30.9791 18.8417 30.9791 18.6746V16.9605C30.9739 16.847 30.9713 16.7894 30.9412 16.7602C30.9102 16.7303 30.8502 16.7303 30.7285 16.7303H28.8579C28.7119 16.7551 28.572 16.6565 28.5456 16.5105C28.3312 15.9499 28.058 15.4134 27.7292 14.9115C27.3981 14.4164 27.0249 13.9514 26.611 13.5217C26.061 12.9724 25.4432 12.4953 24.772 12.1003C23.7599 11.5126 22.653 11.101 21.501 10.8881C20.9419 10.785 20.3768 10.7225 19.8079 10.7H11.9702C11.761 10.7 11.761 10.7421 11.761 10.9091V16.5421C11.761 16.7408 11.7189 16.7408 11.5624 16.7408H9.31549C9.14844 16.7408 9.14844 16.7716 9.14844 16.8868V18.7258C9.14844 18.8929 9.20036 18.8929 9.32602 18.8929H11.594C11.761 18.8929 11.761 18.9237 11.761 19.0494V21.0141C11.761 21.1917 11.7083 21.1917 11.5729 21.1917H9.14844V23.1774C9.14844 23.3445 9.20036 23.3445 9.32602 23.3445H11.594C11.761 23.3445 11.761 23.3648 11.761 23.501V25.9571V26.7825V29.2175ZM26.1942 16.5617C26.2122 16.6084 26.2122 16.6603 26.1942 16.7077H26.2446C26.2235 16.7701 26.1189 16.7912 26.1189 16.7912H14.0591C13.8604 16.7912 13.8604 16.7491 13.8604 16.5926V12.8829C13.8604 12.7467 13.8815 12.6842 14.038 12.6842H19.6499C20.2474 12.6789 20.8434 12.7414 21.4265 12.8723C22.5823 13.1462 23.6576 13.691 24.5621 14.4608C24.7427 14.5955 24.9037 14.7543 25.0429 14.9311C25.3379 15.2238 25.5967 15.5496 25.8164 15.9033C25.9624 16.1102 26.0881 16.3307 26.1942 16.5617ZM26.6946 21.1804H20.3407H14.1117C13.9847 21.1804 13.922 21.1804 13.8912 21.1491C13.8612 21.1186 13.8612 21.0586 13.8612 20.9403V19.0802C13.8612 18.9335 13.9033 18.8816 14.0598 18.8816H26.7051C26.8413 18.8816 26.9038 18.9335 26.9038 19.0591C26.9557 19.7063 26.9557 20.3564 26.9038 21.0028C26.894 21.1804 26.83 21.1804 26.6946 21.1804ZM26.1942 23.3543C26.0166 23.3347 25.8375 23.3347 25.6599 23.3543H14.0704C13.9138 23.3543 13.8612 23.3543 13.8612 23.5634V27.1903C13.8612 27.3574 13.8612 27.3995 14.0704 27.3995H19.4212C19.677 27.4191 19.9329 27.401 20.1834 27.3476C20.96 27.2919 21.7237 27.1234 22.4521 26.8457C22.717 26.7539 22.9728 26.6343 23.2144 26.4906H23.2874C24.5417 25.8382 25.5606 24.8133 26.2032 23.5552C26.2032 23.5552 26.2762 23.3971 26.1942 23.3558V23.3543Z" fill="#FEFEFD"/>
</svg>
